X:422
T:Lucy Campbell
M:C|
L:1/8
K:D
"D"A2 FA A2 dB|A2 FA "A"BE E2|"D"A2 FA dfec|"G"dBAF "D"AD D2|
ADED A3 B|ADED "A"BE E2|"D"ADFA d2 fe|"G"dBAF "D"AD D2||
"D"dBAB defe|"G"dB"A"cA BE E2|"D"dBAB defe|"G"dBAF "D"AD D2|
dBAB defe|"G"dBBB gBBB|"D"dBAB defe|"G"dBAF "D"AD D2||
"D"a3 f defg|a2 fa "A"be e2|"D"a3 f defe|"G"dBAF "D"AD D2|
"D"a3 f defg|a2 fa "A"be e2|"D"gage fgfe|"G"dBAF "D"AD D2||
"D"dfff df"(" "A" ")"ef|"D"dfff afef|dffe fgfe|"G"dBAF "D"AD D2|
"D"dfff df"(" "A" ")"ef|"D"dfff afef|"G"g2 ge "D"f2 fe|"G"dBAF "D"AD D2|
